X:125
M:2/4
L:1/8
Q:1/4=120
K:D Minor
|:Add>^c|Ac d2|FF d>c|B3/2c/4B/4 A2|FF d>c|cA A2|FF G>A|F>E D2:|

